build/img/icon-burger.svg

<svg xmlns="http://www.w3.org/2000/svg" width="24" height="17"><path d="M0 0h24v3H0zm0 7h24v3H0zm0 7h24v3H0z" fill-rule="evenodd"/></svg>

<svg xmlns="http://www.w3.org/2000/svg" width="24" height="17" viewBox="0 0 24 17">
    <g fill-rule="evenodd">
        <path d="M0 0H24V3H0zM0 7H24V10H0zM0 14H24V17H0z"/>
    </g>
</svg>
